X: 14
I: linebreak $
T: Ronde IX
C: 
N: 
K: G major
M: 2/2
L: 1/4
"D"d/ |: "Am"c/A/"D"A/c/ "G"B/G/"C"G/B/ | "F"A/F/"C"G/A/ "G"B"Em"G/d/ | "Am"c/A/"D"A/c/ "G"B"Am"A/G/ | "D"F/E/G/F/ "G"Gz/ :: G/ | "Am"c/B/c/d/ "Em"e3/e/ | "G"d/c/B/A/ "Em"BG/G/ | 
"Am"c/B/c/d/ "Em"e3/e/ |  [1 "G"d/c/B/A/ "E"Bz/ :|]  [2 "G"d/ | c/B/"E"A/B2 |] 

